nova/resources/svg/fluent/arrow-sort.svg

<svg width="24" height="24" viewBox="0 0 24 24" fill="none" xmlns="http://www.w3.org/2000/svg">
<path d="M2.21965 9.21969L6.71441 4.72463C6.98047 4.45856 7.39676 4.43415 7.69038 4.65156L7.77451 4.72404L12.2794 9.21909C12.5726 9.51167 12.5731 9.98654 12.2805 10.2798C12.0145 10.5463 11.5979 10.571 11.3041 10.3534L11.2199 10.2809L7.997 7.06405L7.99766 18.7599C7.99766 19.1396 7.71551 19.4534 7.34943 19.503L7.24766 19.5099C6.86797 19.5099 6.55417 19.2277 6.50451 18.8617L6.49766 18.7599L6.497 7.06205L3.28035 10.2803C3.01409 10.5466 2.59743 10.5708 2.30381 10.353L2.21969 10.2803C1.95341 10.0141 1.92919 9.59743 2.14704 9.30381L2.21965 9.21969L6.71441 4.72463L2.21965 9.21969ZM16.6491 4.5019L16.7509 4.49505C17.1306 4.49505 17.4444 4.77721 17.494 5.14328L17.5009 5.24505L17.5 16.9411L20.7194 13.7199C20.9856 13.4535 21.4023 13.4291 21.696 13.6469L21.7801 13.7194C22.0465 13.9856 22.0709 14.4023 21.8531 14.696L21.7806 14.7801L17.2843 19.2801C17.0182 19.5465 16.6015 19.5709 16.3078 19.3531L16.2237 19.2806L11.7199 14.7806C11.4269 14.4878 11.4267 14.0129 11.7194 13.7199C11.9856 13.4535 12.4023 13.4291 12.696 13.6469L12.7801 13.7194L16 16.9371L16.0009 5.24505C16.0009 4.86536 16.283 4.55156 16.6491 4.5019L16.7509 4.49505L16.6491 4.5019Z" fill="currentColor"/>
</svg>

<svg viewBox="0 0 24 24" fill="none" xmlns="http://www.w3.org/2000/svg"><path d="M2.22 9.22l4.494-4.495a.75.75 0 01.976-.073l.085.072 4.504 4.495a.75.75 0 01-.975 1.134l-.084-.072-3.223-3.217V18.76a.75.75 0 01-.648.743l-.101.007a.75.75 0 01-.743-.648l-.007-.102-.001-11.698L3.28 10.28a.75.75 0 01-.976.073l-.084-.073a.75.75 0 01-.073-.976l.073-.084 4.494-4.495L2.22 9.22zm14.43-4.718l.1-.007a.75.75 0 01.744.648l.007.102-.001 11.696 3.22-3.221a.75.75 0 01.976-.073l.084.072a.75.75 0 01.073.977l-.072.084-4.497 4.5a.75.75 0 01-.976.073l-.084-.072-4.504-4.5a.75.75 0 01.976-1.134l.084.072L16 16.937V5.245a.75.75 0 01.65-.743l.1-.007-.1.007z" fill="currentColor"/></svg>
